!!!COM:	Bach, Johann Sebastian
!!!CDT:	1685/02/21/-1750/07/28/
!!!OTL@@DE:	Erstanden ist der heil'ge Christ
!!!SCT:	BWV 306
!!!PC#:	176
!!!AGN:	chorale
**kern	**text	**kern	**text	**kern	**kern
*ICvox	*	*ICvox	*	*ICvox	*ICvox
*Ibass	*	*Itenor	*	*Ialto	*Isoprn
*I"Bass	*	*I"Tenor	*	*I"Alto	*I"Soprano
*clefF4	*	*clefGv2	*	*clefG2	*clefG2
*k[b-]	*	*k[b-]	*	*k[b-]	*k[b-]
*F:	*	*F:	*	*F:	*F:
*M3/4	*	*M3/4	*	*M3/4	*M3/4
*MM100	*	*MM100	*	*MM100	*MM100
4FF	F	4A	|	4c	4f
=1	=1	=1	=1	=1	=1
4.F	.	8AL	|	4c	4.f
.	.	8B-	.	.	.
.	.	8A	.	8dL	.
8E	.	8GJ	.	8eJ	8gL
4D	d	4F	|	[4f	8a
.	.	.	.	.	8b-J
=2	=2	=2	=2	=2	=2
4.C	C	2G	|	4f]	2cc
.	.	.	.	8eL	.
8DL	.	.	.	8fJ	.
8E	C	4c	|	[4g	4g
8CJ	.	.	.	.	.
=3	=3	=3	=3	=3	=3
4.F	Em7	2c	|	8gL]	2a
.	.	.	.	8eJ	.
.	.	.	.	[2f	.
8E	.	.	.	.	.
4D	.	4d	.	.	4b
=4	=4	=4	=4	=4	=4
2C;	C	2G;	|	4f]	2cc;
.	.	.	.	4e;	.
!!Moved fermata in alto to the suspension resolution. Nat Condit-Schultz, November 2017	C7	NA	|
4E	[4g	4c	4b-X
=5	=5	=5	=5	=5	=5	F	|
4.F	.	8cL	.	4g]	4.a
.	d	8AJ	.	.	.
.	.	2d	.	2f	.
8E	.	.	.	.	8gL
4D	.	.	.	.	8a
.	.	.	8b-J
=6	=6	=6	=6	=6	=6	C	|
4.E	.	8cL	.	8gL	2cc
.	.	8dJ	.	8f	.
.	.	4e	.	8g	.
8F#	g	.	|	[8aJ	.
4G	.	4d	.	8aL]	4b-
.	[8gJ	.	.
=7	=7	=7	=7	=7	=7	d	|
4.D	.	4d	.	8gL]	2a
.	.	.	.	16fnXL	.
.	.	.	.	16eJJ	.
.	.	4A	.	[4f	.
8C	Bb	.	|	.	.
4BB-	.	4D	.	8fL]	4g
.	.	.	.	16eL	.
.	16dJJ	.	.
=8	=8	=8	=8	=8	=8	A	|
2AA;	d	2E;	|	2c#;	2a;
4D	4d	4F	4a
=9	=9	=9	=9	=9	=9	a	|
8AL	.	4A	.	4.e	2ccnX
8AAJ	.	.	.	.	.
8AL	.	[2cnX	.	.	.
8G	.	.	.	8f	.
8F	.	.	.	[4g	4b-
8EJ	.	.	.
=10	=10	=10	=10	=10	=10	F	|
8FL	.	8cL]	.	4g]	2a
8FFJ	d	8A	.	.	.
8FL	.	8d	.	4f	.
8E	g	8cJ	|	.	.
8D	.	4B-	.	[4e	4g
8C#J	.	.	.
=11	=11	=11	=11	=11	=11	d	|
4D	.	8AL	.	4e]	2f
.	Bb	8F	.	.	.
4BB-	.	8B-	.	4d	.
.	C	8AJ	|	.	.
4CnX	.	4G	.	8cL	4e
.	8B-J	.	.
=12	=12	=12	=12	=12	=12	d	|
2D;	.	2F;	|	2A;	2f;
8DL	.	4A	.	4d	4f
8CJ	.	.	.
=13	=13	=13	=13	=13	=13	g	|
4.BB-	.	4G	.	4d	8gL
.	C	.	.	.	8f
.	F	4c	.	8eL	8g
8AA	g	.	|	8fJ	8aJ
4GG	.	4B-	.	8dL	4b-
.	8eJ	.	.
=14	=14	=14	=14	=14	=14	F	|
8FFL	.	8AL	.	2f	2a
8GGJ	.	8B-J	.	.	.
8AAL	.	[4c	.	.	.
8BB-J	C	.	|	.	.
4C	.	8cL]	.	[4e	4g
.	.	8B-J	.
=15	=15	=15	=15	=15	=15	d	|
8DL	.	4A	.	4e]	2f
8CJ	Bb	.	.	.	.
4BB-	.	8B-L	.	4d	.
.	C7	8AJ	|	.	.
4C	.	8GL	.	4c	4e
.	.	8B-J	.
=16	=16	=16	=16	=16	=16	F	|
2FF;	2c;	2A;	2f;
==	==	==	==	==	==
*-	*-	*-	*-	*-	*-
!!!hum2abc: -Q ''
!!!title: @{PC#}. @{OTL@@DE}
!!!YOR1: 371 vierstimmige Choralges&auml;nge von Johann Sebastian Bach, 
!!!YOR2: 4th ed. by Alfred D&ouml;rffel (Leipzig: Breitkopf und H&auml;rtel, 
!!!YOR2: c.1875). 178 pp. Plate "V.A.10".  reprint: J.S. Bach, 371 Four-Part 
!!!YOR4: Chorales (New York: Associated Music Publishers, Inc., c.1940).
!!!SMS: B&H, 4th ed, Alfred D&ouml;rffel, c.1875, plate V.A.10
!!!EED:  Craig Stuart Sapp
!!!EEV:  2009/05/22
